**kern	**silbe	**kern	**silbe	**harmony	**phrase	**leadinstrument	**rhyme	**timestamp	**harte
*ICvox	*	*ICvox	*	*M4/4	*	*	*	*	*M4/4
*VRlead	*	*VRharmonize	*	*	*	*	*	*	*
*Hstimme	*	*Nstimme	*	*	*	*	*	*	*
*G:	*	*G:	*	*G:	*	*	*	*	*G:
*M4/4	*	*M4/4	*	*	*	*	*	*	*
*clefG2	*	*clefG2	*	*	*	*	*	*	*
r;	.	r;	.	1r;	.	r	.	0	N.C.
=1	=1	=1	=1	=1	=1	=1	=1	=1	=1
*>Letter>A	*>Letter>A	*>Letter>A	*>Letter>A	*>Letter>A	*>Letter>A	*>Letter>A	*>Letter>A	*>Letter>A	*>Letter>A
*>Label>Intro	*>Label>Intro	*>Label>Intro	*>Label>Intro	*>Label>Intro	*>Label>Intro	*>Label>Intro	*>Label>Intro	*>Label>Intro	*>Label>Intro
1r	.	1r	.	2GMM	newline	brass	.	0.302	G:maj13
.	.	.	.	2Dmm	.	brass	.	1.281	D:min9
=2	=2	=2	=2	=2	=2	=2	=2	=2	=2
1r	.	1r	.	2GMM	.	brass	.	2.26	G:maj13
.	.	.	.	2E-MM	.	brass	.	3.239	E-:maj13
=3	=3	=3	=3	=3	=3	=3	=3	=3	=3
1r	.	1r	.	1BMm	.	brass	.	4.218	B:sus4(b7,9)
=4	=4	=4	=4	=4	=4	=4	=4	=4	=4
1r	.	1r	.	2B-MM	newline	brass	.	6.177	B-:maj13
.	.	.	.	2A-Mm	.	brass	.	7.195	A-:13
=5	=5	=5	=5	=5	=5	=5	=5	=5	=5
1r	.	1r	.	2FMM	.	brass	.	8.214	F:maj9/4
.	.	.	.	2GMM	.	brass	.	9.232	G:maj13
=6	=6	=6	=6	=6	=6	=6	=6	=6	=6
1r	.	1r	.	1F#Mm	.	brass	.	10.251	F#:sus4(b7,9)
=7	=7	=7	=7	=7	=7	=7	=7	=7	=7
*>Letter>B	*>Letter>B	*>Letter>B	*>Letter>B	*>Letter>B	*>Letter>B	*>Letter>B	*>Letter>B	*>Letter>B	*>Letter>B
*>Label>Intro	*>Label>Intro	*>Label>Intro	*>Label>Intro	*>Label>Intro	*>Label>Intro	*>Label>Intro	*>Label>Intro	*>Label>Intro	*>Label>Intro
*	*	*	*	*M5/8	*M5/8	*M5/8	*	*M5/8	*M5/8
8%5r	.	8%5r	.	8%5FM	newline	piano	.	12.288	F:maj
.	.	.	.	.	.	.	.	.	F:maj
=8	=8	=8	=8	=8	=8	=8	=8	=8	=8
8%5r	.	8%5r	.	8%5GM	.	piano	.	13.599	G:maj
.	.	.	.	.	.	.	.	.	G:maj
=9	=9	=9	=9	=9	=9	=9	=9	=9	=9
8%5r	.	8%5r	.	8%5FM	.	piano	.	14.91	F:maj
.	.	.	.	.	.	.	.	.	F:maj
=10	=10	=10	=10	=10	=10	=10	=10	=10	=10
8%5r	.	8%5r	.	8%5GM	.	piano	.	16.22	G:maj
.	.	.	.	.	.	.	.	.	G:maj
=11	=11	=11	=11	=11	=11	=11	=11	=11	=11
8%5r	.	8%5r	.	8%5FM	newline	piano	.	17.531	F:maj
.	.	.	.	.	.	.	.	.	F:maj
=12	=12	=12	=12	=12	=12	=12	=12	=12	=12
8%5r	.	8%5r	.	8%5GM	.	piano	.	18.895	G:maj
.	.	.	.	.	.	.	.	.	G:maj
=13	=13	=13	=13	=13	=13	=13	=13	=13	=13
*M3/8	*	*M3/8	*	*M3/8	*M3/8	*M3/8	*	*M3/8	*M3/8
4.r	.	4.r	.	4.E-M	.	piano	.	20.259	E-:maj(b9)
=14	=14	=14	=14	=14	=14	=14	=14	=14	=14
4.r	.	4.r	.	4.E-M	.	piano	.	21.078	E-:maj(b9)
=15	=15	=15	=15	=15	=15	=15	=15	=15	=15
4.r	.	4.r	.	4.E-MM	newline	brass	.	21.896	E-:maj7(#11)
=16	=16	=16	=16	=16	=16	=16	=16	=16	=16
4.r	.	4.r	.	4.E-MM	.	brass	.	22.754	E-:maj7(#11)
=17	=17	=17	=17	=17	=17	=17	=17	=17	=17
*M4/4	*	*M4/4	*	*M4/4	*M4/4	*M4/4	*	*M4/4	*M4/4
1r	.	1r	.	1E-MM	.	brass	.	23.611	E-:maj7(#11)
=18	=18	=18	=18	=18	=18	=18	=18	=18	=18
*>Letter>C	*>Letter>C	*>Letter>C	*>Letter>C	*>Letter>C	*>Letter>C	*>Letter>C	*>Letter>C	*>Letter>C	*>Letter>C
*>Label>Instrumental	*>Label>Instrumental	*>Label>Instrumental	*>Label>Instrumental	*>Label>Instrumental	*>Label>Instrumental	*>Label>Instrumental	*>Label>Instrumental	*>Label>Instrumental	*>Label>Instrumental
1r	.	1r	.	1GMM	newline	brass	.	25.898	G:maj7
=19	=19	=19	=19	=19	=19	=19	=19	=19	=19
1r	.	1r	.	1CMM	.	brass	.	27.936	C:maj13
=20	=20	=20	=20	=20	=20	=20	=20	=20	=20
1r	.	1r	.	1GMM	.	brass	.	29.974	G:maj7
=21	=21	=21	=21	=21	=21	=21	=21	=21	=21
1r	.	1r	.	1CMM	.	brass	.	32.012	C:maj13
=22	=22	=22	=22	=22	=22	=22	=22	=22	=22
1r	.	1r	.	1GMM	newline	brass	.	34.05	G:maj7
=23	=23	=23	=23	=23	=23	=23	=23	=23	=23
1r	.	1r	.	1CMM	.	brass	.	36.06	C:maj13
=24	=24	=24	=24	=24	=24	=24	=24	=24	=24
1r	.	1r	.	1GMM	.	brass	.	38.069	G:maj7
=25	=25	=25	=25	=25	=25	=25	=25	=25	=25
1r	.	1r	.	1CMM	.	brass	.	40.079	C:maj13
=26	=26	=26	=26	=26	=26	=26	=26	=26	=26
*>Letter>D	*>Letter>D	*>Letter>D	*>Letter>D	*>Letter>D	*>Letter>D	*>Letter>D	*>Letter>D	*>Letter>D	*>Letter>D
*>Label>Bridge	*>Label>Bridge	*>Label>Bridge	*>Label>Bridge	*>Label>Bridge	*>Label>Bridge	*>Label>Bridge	*>Label>Bridge	*>Label>Bridge	*>Label>Bridge
1r	.	1r	.	2DM	newline	brass	.	42.089	D:maj
.	.	.	.	2Emm	.	brass	.	43.127	E:min7
=27	=27	=27	=27	=27	=27	=27	=27	=27	=27
1r	.	1r	.	2FM	.	brass	.	44.165	F:maj6
.	.	.	.	2Emm	.	brass	.	45.202	E:min7
=28	=28	=28	=28	=28	=28	=28	=28	=28	=28
*>Letter>E	*>Letter>E	*>Letter>E	*>Letter>E	*>Letter>E	*>Letter>E	*>Letter>E	*>Letter>E	*>Letter>E	*>Letter>E
*>Label>Verse	*>Label>Verse	*>Label>Verse	*>Label>Verse	*>Label>Verse	*>Label>Verse	*>Label>Verse	*>Label>Verse	*>Label>Verse	*>Label>Verse
4r	.	1r	.	1GM	newline	voice	.	46.24	G:maj
8r	.	.	.	.	.	.	.	.	.
8D	As	.	.	.	.	.	.	.	.
8B	I	.	.	.	.	.	.	.	.
4c	was	.	.	.	.	.	.	.	.
[8d	wal	.	.	.	.	.	.	.	.
=29	=29	=29	=29	=29	=29	=29	=29	=29	=29
8d]	_	1r	.	1FM	.	voice	.	48.26	F:maj
4c	king	.	.	.	.	.	.	.	.
[8B	down	.	.	.	.	.	.	.	.
8B]	_	.	.	.	.	.	.	.	.
4G	the	.	.	.	.	.	.	.	.
[8D	street	.	.	.	.	.	.	.	.
=30	=30	=30	=30	=30	=30	=30	=30	=30	=30
8D]	_	1r	.	1B-MM	.	voice	.	50.281	B-:maj7
4G	one	.	.	.	.	.	.	.	.
[8G	day	.	.	.	.	.	.	.	.
4G]	_	.	.	.	.	.	.	.	.
4r	.	.	.	.	.	.	.	.	.
=31	=31	=31	=31	=31	=31	=31	=31	=31	=31
2r	.	1r	.	1E-MM	.	voice	.	52.301	E-:maj13
8r	.	.	.	.	.	.	.	.	.
4c	a	.	.	.	.	.	.	.	.
[8d	man	.	.	.	.	.	.	.	.
=32	=32	=32	=32	=32	=32	=32	=32	=32	=32
8d]	_	1r	.	1B-MM	newline	voice	.	54.321	B-:maj7
4d	came	.	.	.	.	.	.	.	.
16cQ	_	.	.	.	.	.	.	.	.
16dQ	_	.	.	.	.	.	.	.	.
[8c	up	.	.	.	.	.	.	.	.
8c]	_	.	.	.	.	.	.	.	.
4B-	to	.	.	.	.	.	.	.	.
8cq	_	.	.	.	.	.	.	.	.
[8d	me	.	.	.	.	.	.	.	.
=33	=33	=33	=33	=33	=33	=33	=33	=33	=33
8d]	_	1r	.	1E-MM	.	voice	.	56.333	E-:maj13
4d	and	.	.	.	.	.	.	.	.
[8c	asked	.	.	.	.	.	.	.	.
8c]	_	.	.	.	.	.	.	.	.
4B-	me	.	.	.	.	.	.	.	.
[8d	what	.	.	.	.	.	.	.	.
=34	=34	=34	=34	=34	=34	=34	=34	=34	=34
8d]	_	1r	.	1B-MM	.	voice	.	58.345	B-:maj7
4d	the	.	.	.	.	.	.	.	.
8dq	_	.	.	.	.	.	.	.	.
[8c	time	.	.	.	.	.	.	.	.
8c]	_	.	.	.	.	.	.	.	.
4B-	was	.	.	.	.	.	.	.	.
[8d	that	.	.	.	.	.	.	.	.
=35	=35	=35	=35	=35	=35	=35	=35	=35	=35
8d]	_	1r	.	1E-MM	.	voice	.	60.357	E-:maj13
4d	was	.	.	.	.	.	.	.	.
[8c	on	.	.	.	.	.	.	.	.
8c]	_	.	.	.	.	.	.	.	.
4B-	my	.	.	.	.	.	.	.	.
[8d	watch	.	.	.	.	.	.	.	.
=36	=36	=36	=36	=36	=36	=36	=36	=36	=36
16d]	_	1r	.	1E-MM	.	voice	.	62.369	E-:maj13
16c	_	.	.	.	.	.	.	.	.
[8d	_	.	.	.	.	.	.	.	.
4d_	_	.	.	.	.	.	.	.	.
4d]	_	.	.	.	.	.	.	.	.
4r	.	.	.	.	.	.	.	.	.
=37	=37	=37	=37	=37	=37	=37	=37	=37	=37
24d	Yeah	1r	.	1E-MM	.	voice	.	64.381	E-:maj13
24c	_	.	.	.	.	.	.	.	.
24B-	_	.	.	.	.	.	.	.	.
[8c	_	.	.	.	.	.	.	.	.
4c]	_	.	.	.	.	.	.	.	.
4r	.	.	.	.	.	.	.	.	.
4e-	I	.	.	.	.	.	.	.	.
=38	=38	=38	=38	=38	=38	=38	=38	=38	=38
*>Letter>D	*>Letter>D	*>Letter>D	*>Letter>D	*>Letter>D	*>Letter>D	*>Letter>D	*>Letter>D	*>Letter>D	*>Letter>D
*>Label>Bridge	*>Label>Bridge	*>Label>Bridge	*>Label>Bridge	*>Label>Bridge	*>Label>Bridge	*>Label>Bridge	*>Label>Bridge	*>Label>Bridge	*>Label>Bridge
8d	said	1r	.	2DM	newline	brass	.	66.393	D:maj
16c	_	.	.	.	.	.	.	.	.
[16d	_	.	.	.	.	.	.	.	.
4d_	_	.	.	.	.	.	.	.	.
4d]	.	.	.	2Emm	.	brass	.	67.448	E:min7
4r	.	.	.	.	.	.	.	.	.
=39	=39	=39	=39	=39	=39	=39	=39	=39	=39
1r	.	1r	.	2FM	.	brass	.	68.503	F:maj6
.	.	.	.	2Emm	.	brass	.	69.557	E:min7
=40	=40	=40	=40	=40	=40	=40	=40	=40	=40
*>Letter>C	*>Letter>C	*>Letter>C	*>Letter>C	*>Letter>C	*>Letter>C	*>Letter>C	*>Letter>C	*>Letter>C	*>Letter>C
*>Label>Chorus	*>Label>Chorus	*>Label>Chorus	*>Label>Chorus	*>Label>Chorus	*>Label>Chorus	*>Label>Chorus	*>Label>Chorus	*>Label>Chorus	*>Label>Chorus
.	.	8Eq 8cq	_	.	.	.	.	.	.
4r	.	[2.F# [2.d	I	1GMM	newline	voice	.	70.612	G:maj7
12r	.	.	.	.	.	.	.	.	.
12r	.	.	.	.	.	.	.	.	.
12D	Does	.	.	.	.	.	.	.	.
12B	a-	.	.	.	.	.	.	.	.
12B	-ny-	.	.	.	.	.	.	.	.
12B	-bo-	.	.	.	.	.	.	.	.
12B	-dy	6F#] 6d]	_	.	.	.	.	.	.
12d	real-	.	.	.	.	.	.	.	.
12c	-ly	[12G [12e	don't	.	.	.	.	.	.
=41	=41	=41	=41	=41	=41	=41	=41	=41	=41
8B	know	4G] 4e]	_	1CMM	.	voice	.	72.647	C:maj13
8G	what	.	.	.	.	.	.	.	.
8r	.	2r	.	.	.	.	.	.	.
8G	time	.	.	.	.	.	.	.	.
12E	it	.	.	.	.	.	.	.	.
[6A	is	.	.	.	.	.	.	.	.
8A]	_	4r	.	.	.	.	.	.	.
8r	.	.	.	.	.	.	.	.	.
=42	=42	=42	=42	=42	=42	=42	=42	=42	=42
.	.	8Aq 8eq	_	.	.	.	.	.	.
4r	.	[2.B [2.f#	care	1GMM	.	voice	.	74.682	G:maj7
12r	.	.	.	.	.	.	.	.	.
12r	.	.	.	.	.	.	.	.	.
12D	Does	.	.	.	.	.	.	.	.
12B	a-	.	.	.	.	.	.	.	.
12B	-ny-	.	.	.	.	.	.	.	.
12B	-bo-	.	.	.	.	.	.	.	.
12B	-dy	6B] 6f#]	_	.	.	.	.	.	.
12d	real-	.	.	.	.	.	.	.	.
[12c	-ly	[12c [12g	_	.	.	.	.	.	.
=43	=43	=43	=43	=43	=43	=43	=43	=43	=43
8c]	_	4c] 4g]	_	1CMM	.	voice	.	76.717	C:maj13
8Aq	_	.	.	.	.	.	.	.	.
[8B	care	.	.	.	.	.	.	.	.
4B]	_	4r	.	.	.	.	.	.	.
2r	.	8c 8g	a-	.	.	.	.	.	.
.	.	8d 8a	-bout	.	.	.	.	.	.
.	.	8r	.	.	.	.	.	.	.
.	.	8cq 8aq	_	.	.	.	.	.	.
.	.	[8d [8b	time	.	.	.	.	.	.
=44	=44	=44	=44	=44	=44	=44	=44	=44	=44
4r	.	2.d] 2.b]	_	1GMM	newline	voice	.	78.752	G:maj7
8r	.	.	.	.	.	.	.	.	.
8D	If	.	.	.	.	.	.	.	.
8B	so,	.	.	.	.	.	.	.	.
4c	I	.	.	.	.	.	.	.	.
.	.	4r	.	.	.	.	.	.	.
8d	can't	.	.	.	.	.	.	.	.
=45	=45	=45	=45	=45	=45	=45	=45	=45	=45
8B	i-	2r	.	1CMM	.	voice	.	80.769	C:maj13
8B	-ma-	.	.	.	.	.	.	.	.
8G	-gine	.	.	.	.	.	.	.	.
[8G	why	.	.	.	.	.	A	.	.
4G]	_	4r	.	.	.	.	.	.	.
4r	.	8d 8g	Oh,	.	.	.	.	.	.
.	.	8Bq 8dq	_	.	.	.	.	.	.
.	.	[8c [8e	no,	.	.	.	.	.	.
=46	=46	=46	=46	=46	=46	=46	=46	=46	=46
4r	.	8c] 8e]	_	1GMM	.	voice	.	82.785	G:maj7
.	.	8B 8d	_	.	.	.	.	.	.
8r	.	8G 8B	_	.	.	.	.	.	.
8D	We've	[8B [8d	no	.	.	.	.	.	.
8B	all	8B] 8d]	_	.	.	.	.	.	.
8c	got	8c 8e	_	.	.	.	.	.	.
8r	.	4r	.	.	.	.	.	.	.
8d	time	.	.	.	.	.	.	.	.
=47	=47	=47	=47	=47	=47	=47	=47	=47	=47
8c	e-	1r	.	1CMM	.	voice	.	84.801	C:maj13
8B	-nough	.	.	.	.	.	.	.	.
8G	to	.	.	.	.	.	.	.	.
[8G	cry	.	.	.	.	.	A	.	.
8G]	_	.	.	.	.	.	.	.	.
8r	.	.	.	.	.	.	.	.	.
4r	.	.	.	.	.	.	.	.	.
=48	=48	=48	=48	=48	=48	=48	=48	=48	=48
*>Letter>E	*>Letter>E	*>Letter>E	*>Letter>E	*>Letter>E	*>Letter>E	*>Letter>E	*>Letter>E	*>Letter>E	*>Letter>E
*>Label>Verse	*>Label>Verse	*>Label>Verse	*>Label>Verse	*>Label>Verse	*>Label>Verse	*>Label>Verse	*>Label>Verse	*>Label>Verse	*>Label>Verse
4r	.	1r	.	1GM	newline	voice	.	86.818	G:maj
8r	.	.	.	.	.	.	.	.	.
8~D	And	.	.	.	.	.	.	.	.
8B	I	.	.	.	.	.	.	.	.
4c	was	.	.	.	.	.	.	.	.
8d	wal	.	.	.	.	.	.	.	.
=49	=49	=49	=49	=49	=49	=49	=49	=49	=49
8r	.	1r	.	1FM	.	voice	.	88.797	F:maj
4c	king	.	.	.	.	.	.	.	.
8B-	down	.	.	.	.	.	.	.	.
8G	_	.	.	.	.	.	.	.	.
4G	the	.	.	.	.	.	.	.	.
8D	street	.	.	.	.	.	.	.	.
=50	=50	=50	=50	=50	=50	=50	=50	=50	=50
8r	.	1r	.	1B-MM	.	voice	.	90.777	B-:maj7
4G	one	.	.	.	.	.	.	.	.
[8G	day	.	.	.	.	.	.	.	.
4G]	_	.	.	.	.	.	.	.	.
4r	.	.	.	.	.	.	.	.	.
=51	=51	=51	=51	=51	=51	=51	=51	=51	=51
2r	.	1r	.	1E-MM	.	voice	.	92.757	E-:maj13
8r	.	.	.	.	.	.	.	.	.
4c	a	.	.	.	.	.	.	.	.
8d	pret	.	.	.	.	.	.	.	.
=52	=52	=52	=52	=52	=52	=52	=52	=52	=52
8r	.	1r	.	1B-MM	newline	voice	.	94.737	B-:maj7
4d	ty	.	.	.	.	.	b	.	.
16cQ	_	.	.	.	.	.	.	.	.
16dQ	_	.	.	.	.	.	.	.	.
[8c	la	.	.	.	.	.	.	.	.
8c]	_	.	.	.	.	.	.	.	.
4B-	dy	.	.	.	.	.	b	.	.
8cq	_	.	.	.	.	.	.	.	.
[8d	looked	.	.	.	.	.	.	.	.
=53	=53	=53	=53	=53	=53	=53	=53	=53	=53
8d]	_	1r	.	1E-MM	.	voice	.	96.774	E-:maj13
4d	at	.	.	.	.	.	.	.	.
[8c	me	.	.	.	.	.	B	.	.
8c]	_	.	.	.	.	.	.	.	.
4B-	and	.	.	.	.	.	.	.	.
[8d	said	.	.	.	.	.	.	.	.
=54	=54	=54	=54	=54	=54	=54	=54	=54	=54
8d]	_	1r	.	1B-MM	.	voice	.	98.811	B-:maj7
4d	her	.	.	.	.	.	.	.	.
8dq	_	.	.	.	.	.	.	.	.
[8c	dia	.	.	.	.	.	.	.	.
8c]	_	.	.	.	.	.	.	.	.
4B-	mond	.	.	.	.	.	.	.	.
8d	watch	.	.	.	.	.	.	.	.
=55	=55	=55	=55	=55	=55	=55	=55	=55	=55
8r	.	1r	.	1E-MM	.	voice	.	100.848	E-:maj13
4d	had	.	.	.	.	.	.	.	.
[8c	stopped	.	.	.	.	.	.	.	.
8c]	_	.	.	.	.	.	.	.	.
4B-	cold	.	.	.	.	.	.	.	.
[8d	dead	.	.	.	.	.	C	.	.
=56	=56	=56	=56	=56	=56	=56	=56	=56	=56
16d]	_	1r	.	1E-MM	.	voice	.	102.885	E-:maj13
16c	_	.	.	.	.	.	.	.	.
[8d	_	.	.	.	.	.	.	.	.
4d_	_	.	.	.	.	.	.	.	.
4d_	_	.	.	.	.	.	.	.	.
8d]	_	.	.	.	.	.	.	.	.
8r	.	.	.	.	.	.	.	.	.
=57	=57	=57	=57	=57	=57	=57	=57	=57	=57
2r	.	1r	.	1E-MM	.	voice	.	104.922	E-:maj13
8r	.	.	.	.	.	.	.	.	.
8~D	And	.	.	.	.	.	.	.	.
4e-	I	.	.	.	.	.	.	.	.
=58	=58	=58	=58	=58	=58	=58	=58	=58	=58
*>Letter>D	*>Letter>D	*>Letter>D	*>Letter>D	*>Letter>D	*>Letter>D	*>Letter>D	*>Letter>D	*>Letter>D	*>Letter>D
*>Label>Bridge	*>Label>Bridge	*>Label>Bridge	*>Label>Bridge	*>Label>Bridge	*>Label>Bridge	*>Label>Bridge	*>Label>Bridge	*>Label>Bridge	*>Label>Bridge
8d	said	1r	.	2DM	newline	brass	C	106.959	D:maj
16c	_	.	.	.	.	.	.	.	.
[16d	_	.	.	.	.	.	.	.	.
2.d_	_	.	.	.	.	.	.	.	.
.	.	.	.	2Emm	.	brass	.	108.01	E:min7
=59	=59	=59	=59	=59	=59	=59	=59	=59	=59
8d]	_	1r	.	2FM	.	brass	.	109.062	F:maj6
8r	.	.	.	.	.	.	.	.	.
4r	.	.	.	.	.	.	.	.	.
2r	.	.	.	2Emm	.	brass	.	110.113	E:min7
=60	=60	=60	=60	=60	=60	=60	=60	=60	=60
*>Letter>C	*>Letter>C	*>Letter>C	*>Letter>C	*>Letter>C	*>Letter>C	*>Letter>C	*>Letter>C	*>Letter>C	*>Letter>C
*>Label>Chorus	*>Label>Chorus	*>Label>Chorus	*>Label>Chorus	*>Label>Chorus	*>Label>Chorus	*>Label>Chorus	*>Label>Chorus	*>Label>Chorus	*>Label>Chorus
.	.	8Eq 8cq	_	.	.	.	.	.	.
4r	.	[2.F# [2.d	I	1GMM	newline	voice	.	111.165	G:maj7
12r	.	.	.	.	.	.	.	.	.
12r	.	.	.	.	.	.	.	.	.
12D	Does	.	.	.	.	.	.	.	.
12B	a-	.	.	.	.	.	.	.	.
12B	-ny-	.	.	.	.	.	.	.	.
12B	-bo-	.	.	.	.	.	.	.	.
12B	-dy	6F#] 6d]	_	.	.	.	.	.	.
12d	real-	.	.	.	.	.	.	.	.
12c	-ly	[12G [12e	don't	.	.	.	.	.	.
=61	=61	=61	=61	=61	=61	=61	=61	=61	=61
8B	know	4G] 4e]	_	1CMM	.	voice	.	113.204	C:maj13
8G	what	.	.	.	.	.	.	.	.
8r	.	2r	.	.	.	.	.	.	.
8G	time	.	.	.	.	.	.	.	.
12E	it	.	.	.	.	.	.	.	.
8Gq	_	.	.	.	.	.	.	.	.
[6A	is	.	.	.	.	.	.	.	.
8A]	_	4r	.	.	.	.	.	.	.
8r	.	.	.	.	.	.	.	.	.
=62	=62	=62	=62	=62	=62	=62	=62	=62	=62
.	.	8Aq 8eq	_	.	.	.	.	.	.
4r	.	[2.B [2.f#	care	1GMM	.	voice	.	115.244	G:maj7
12r	.	.	.	.	.	.	.	.	.
12r	.	.	.	.	.	.	.	.	.
12D	Does	.	.	.	.	.	.	.	.
12B	a-	.	.	.	.	.	.	.	.
12B	-ny-	.	.	.	.	.	.	.	.
12B	-bo-	.	.	.	.	.	.	.	.
12B	-dy	6B] 6f#]	_	.	.	.	.	.	.
[12d	real	.	.	.	.	.	.	.	.
24d]	_	[12c [12g	_	.	.	.	.	.	.
[24c	ly	.	.	.	.	.	.	.	.
=63	=63	=63	=63	=63	=63	=63	=63	=63	=63
8c]	_	4c] 4g]	_	1CMM	.	voice	.	117.284	C:maj13
8Aq	_	.	.	.	.	.	.	.	.
[8B	care	.	.	.	.	.	.	.	.
4B]	_	4r	.	.	.	.	.	.	.
2r	.	8c 8g	a-	.	.	.	.	.	.
.	.	8d 8a	-bout	.	.	.	.	.	.
.	.	8r	.	.	.	.	.	.	.
.	.	8cq 8aq	_	.	.	.	.	.	.
.	.	[8d [8b	time	.	.	.	A	.	.
=64	=64	=64	=64	=64	=64	=64	=64	=64	=64
4r	.	2.d] 2.b]	_	1GMM	newline	voice	.	119.324	G:maj7
8r	.	.	.	.	.	.	.	.	.
8D	If	.	.	.	.	.	.	.	.
8B	so,	.	.	.	.	.	.	.	.
4c	I	.	.	.	.	.	.	.	.
.	.	4r	.	.	.	.	.	.	.
8d	can't	.	.	.	.	.	.	.	.
=65	=65	=65	=65	=65	=65	=65	=65	=65	=65
8B	i-	2r	.	1CMM	.	voice	.	121.332	C:maj13
8B	-ma-	.	.	.	.	.	.	.	.
8G	-gine	.	.	.	.	.	.	.	.
[8G	why	.	.	.	.	.	A	.	.
4G]	_	4r	.	.	.	.	.	.	.
4r	.	8d 8g	Oh	.	.	.	.	.	.
.	.	8Bq 8dq	_	.	.	.	.	.	.
.	.	[8c [8e	no,	.	.	.	.	.	.
=66	=66	=66	=66	=66	=66	=66	=66	=66	=66
4r	.	8c] 8e]	_	1GMM	.	voice	.	123.34	G:maj7
.	.	8B 8d	_	.	.	.	.	.	.
8r	.	8G 8B	_	.	.	.	.	.	.
8D	We've	[8B [8d	no	.	.	.	.	.	.
8B	all	8B] 8d]	_	.	.	.	.	.	.
8c	got	8c 8e	_	.	.	.	.	.	.
8r	.	4r	.	.	.	.	.	.	.
8d	time	.	.	.	.	.	.	.	.
=67	=67	=67	=67	=67	=67	=67	=67	=67	=67
16c	e-	1r	.	1CMM	.	voice	.	125.348	C:maj13
8B	-nough	.	.	.	.	.	.	.	.
[16G	to	.	.	.	.	.	.	.	.
8G]	_	.	.	.	.	.	.	.	.
8G	cry	.	.	.	.	.	A	.	.
2r	.	.	.	.	.	.	.	.	.
=68	=68	=68	=68	=68	=68	=68	=68	=68	=68
*>Letter>E	*>Letter>E	*>Letter>E	*>Letter>E	*>Letter>E	*>Letter>E	*>Letter>E	*>Letter>E	*>Letter>E	*>Letter>E
*>Label>Verse	*>Label>Verse	*>Label>Verse	*>Label>Verse	*>Label>Verse	*>Label>Verse	*>Label>Verse	*>Label>Verse	*>Label>Verse	*>Label>Verse
4r	.	1r	.	1GM	newline	voice	.	127.356	G:maj
8r	.	.	.	.	.	.	.	.	.
8~D	And	.	.	.	.	.	.	.	.
8B	I	.	.	.	.	.	.	.	.
4c	was	.	.	.	.	.	.	.	.
8d	wal	.	.	.	.	.	.	.	.
=69	=69	=69	=69	=69	=69	=69	=69	=69	=69
8r	.	1r	.	1FM	.	voice	.	129.368	F:maj
4c	king	.	.	.	.	.	.	.	.
8B-	down	.	.	.	.	.	.	.	.
8Bq	_	.	.	.	.	.	.	.	.
8B-	_	.	.	.	.	.	.	.	.
4G	the	.	.	.	.	.	.	.	.
8D	street	.	.	.	.	.	B	.	.
=70	=70	=70	=70	=70	=70	=70	=70	=70	=70
8r	.	2r	.	1B-MM	.	voice	.	131.38	B-:maj7
4G	one	.	.	.	.	.	.	.	.
[8G	day	.	.	.	.	.	.	.	.
4G]	_	8r	.	.	.	.	.	.	.
.	.	16BB	Peo-	.	.	.	.	.	.
.	.	16BB	-ple	.	.	.	.	.	.
4r	.	16BB	run-	.	.	.	.	.	.
.	.	16BB	-ning	.	.	.	.	.	.
.	.	16BB	ev-	.	.	.	.	.	.
.	.	16BB	-'ry-	.	.	.	.	.	.
=71	=71	=71	=71	=71	=71	=71	=71	=71	=71
2r	.	4BB	-where	1E-MM	.	voice	.	133.393	E-:maj13
.	.	4r	.	.	.	.	.	.	.
8B-	Be-	2r	.	.	.	.	B	.	.
4c	-ing	.	.	.	.	.	.	.	.
[8d	pushed	.	.	.	.	.	.	.	.
=72	=72	=72	=72	=72	=72	=72	=72	=72	=72
8d]	_	12r	.	1B-MM	newline	voice	.	135.405	B-:maj7
.	.	6BB	Don't	.	.	.	.	.	.
4d	and	.	.	.	.	.	.	.	.
.	.	6BB	know	.	.	.	.	.	.
16cQ	_	.	.	.	.	.	.	.	.
16dQ	_	.	.	.	.	.	.	.	.
[8c	shoved	.	.	.	.	.	.	.	.
.	.	[12C	where	.	.	.	.	.	.
8c]	_	8C]	_	.	.	.	.	.	.
4B-	by	16BB	to	.	.	.	.	.	.
.	.	16D	go	.	.	.	.	.	.
.	.	4r	.	.	.	.	.	.	.
8cq	_	.	.	.	.	.	.	.	.
8d	peo	.	.	.	.	.	B	.	.
=73	=73	=73	=73	=73	=73	=73	=73	=73	=73
8r	.	4r	.	1E-MM	.	voice	.	137.447	E-:maj13
4d	ple	.	.	.	.	.	.	.	.
.	.	16r	.	.	.	.	.	.	.
.	.	16BB	I	.	.	.	.	.	.
16cQ	_	.	.	.	.	.	.	.	.
16dQ	_	.	.	.	.	.	.	.	.
[8c	trying	8BB	don't	.	.	.	.	.	.
8c]	_	8BB	know	.	.	.	.	.	.
4B-	to	16C	where	.	.	.	.	.	.
.	.	16BB	I	.	.	.	.	.	.
.	.	4D	am.	.	.	.	.	.	.
8d	beat	.	.	.	.	.	B	.	.
=74	=74	=74	=74	=74	=74	=74	=74	=74	=74
8r	.	4r	.	1B-MM	.	voice	.	139.49	B-:maj7
4d	the	.	.	.	.	.	.	.	.
.	.	8r	.	.	.	.	.	.	.
8dq	_	.	.	.	.	.	.	.	.
[8c	clock,	8C	I	.	.	.	.	.	.
8c]	_	8.C	can't	.	.	.	.	.	.
4B-	oh	.	.	.	.	.	D	.	.
.	.	[16C	see	.	.	.	.	.	.
.	.	8C]	_	.	.	.	.	.	.
[8d	no,	[8C	past	.	.	.	D	.	.
=75	=75	=75	=75	=75	=75	=75	=75	=75	=75
8d]	_	16C]	_	1E-MM	.	voice	.	141.533	E-:maj13
.	.	16C	the	.	.	.	.	.	.
4d	I	8C	next	.	.	.	.	.	.
.	.	8C	step	.	.	.	.	.	.
[8c	just	8r	.	.	.	.	.	.	.
8c]	_	2r	.	.	.	.	.	.	.
4B-	don't	.	.	.	.	.	.	.	.
8c#q	_	.	.	.	.	.	.	.	.
8d	know,	.	.	.	.	.	D	.	.
=76	=76	=76	=76	=76	=76	=76	=76	=76	=76
8B-	_	4r	.	1E-MM	.	voice	.	143.575	E-:maj13
8B-	I	.	.	.	.	.	.	.	.
8G	don't	8E	Don't	.	.	.	.	.	.
[8B-	know,	8E	have	.	.	.	.	.	.
8B-]	_	8E	time	.	.	.	.	.	.
8c	I	16E	to	.	.	.	.	.	.
.	.	16E	fi-	.	.	.	.	.	.
8B-	don't	16E	-gure	.	.	.	.	.	.
.	.	8E	out	.	.	.	.	.	.
8c#q	_	.	.	.	.	.	.	.	.
[8d	know	.	.	.	.	.	D	.	.
.	.	16D	the	.	.	.	.	.	.
=77	=77	=77	=77	=77	=77	=77	=77	=77	=77
8d]	_	8.C	next	1E-MM	.	voice	.	145.618	E-:maj13
8c#q	_	.	.	.	.	.	.	.	.
4.d	oh	.	.	.	.	.	D	.	.
.	.	[16C	step	.	.	.	.	.	.
.	.	16C]	_	.	.	.	.	.	.
.	.	8.r	.	.	.	.	.	.	.
8r	.	8AA	Don't	.	.	.	.	.	.
8~C	And	8BB	have	.	.	.	.	.	.
4e-	I	8C	time	.	.	.	.	.	.
.	.	16C	to	.	.	.	.	.	.
.	.	[16BB	look	.	.	.	.	.	.
=78	=78	=78	=78	=78	=78	=78	=78	=78	=78
*>Letter>D	*>Letter>D	*>Letter>D	*>Letter>D	*>Letter>D	*>Letter>D	*>Letter>D	*>Letter>D	*>Letter>D	*>Letter>D
*>Label>Bridge	*>Label>Bridge	*>Label>Bridge	*>Label>Bridge	*>Label>Bridge	*>Label>Bridge	*>Label>Bridge	*>Label>Bridge	*>Label>Bridge	*>Label>Bridge
8d	said	16BB]	_	2DM	newline	brass	.	147.661	D:maj
.	.	16AA	a-	.	.	.	.	.	.
16c	_	8BB	-round	.	.	.	.	.	.
[16d	_	.	.	.	.	.	.	.	.
4d_	_	4r	.	.	.	.	.	.	.
4d]	_	8r	.	2Emm	.	brass	.	148.691	E:min7
.	.	8F	Just	.	.	.	.	.	.
8r	.	16E	run-	.	.	.	.	.	.
.	.	16E	-a-	.	.	.	.	.	.
[8f	yes,	8D	-round	.	.	.	.	.	.
=79	=79	=79	=79	=79	=79	=79	=79	=79	=79
8f]	_	16D	(unintelligible)	2FM	.	brass	.	149.721	F:maj6
.	.	8.C	_	.	.	.	.	.	.
4e	I	.	.	.	.	.	.	.	.
.	.	8r	.	.	.	.	.	.	.
8dq	_	.	.	.	.	.	.	.	.
[8e	said	8E	_	.	.	.	.	.	.
8e]	_	16C	_	2Emm	.	brass	.	150.751	E:min7
.	.	16D	_	.	.	.	.	.	.
8B	_	8r	.	.	.	.	.	.	.
4r	.	4r	.	.	.	.	.	.	.
=80	=80	=80	=80	=80	=80	=80	=80	=80	=80
*>Letter>C	*>Letter>C	*>Letter>C	*>Letter>C	*>Letter>C	*>Letter>C	*>Letter>C	*>Letter>C	*>Letter>C	*>Letter>C
*>Label>Chorus	*>Label>Chorus	*>Label>Chorus	*>Label>Chorus	*>Label>Chorus	*>Label>Chorus	*>Label>Chorus	*>Label>Chorus	*>Label>Chorus	*>Label>Chorus
.	.	8Eq 8cq	_	.	.	.	.	.	.
4r	.	[2.F# [2.d	I	1GMM	newline	voice	.	151.781	G:maj7
12r	.	.	.	.	.	.	.	.	.
12r	.	.	.	.	.	.	.	.	.
12D	Does	.	.	.	.	.	.	.	.
12B	a-	.	.	.	.	.	.	.	.
12B	-ny-	.	.	.	.	.	.	.	.
12B	-no-	.	.	.	.	.	.	.	.
12B	-dy	6F#] 6d]	_	.	.	.	.	.	.
12d	real-	.	.	.	.	.	.	.	.
12c	-ly	[12G [12e	don't	.	.	.	.	.	.
=81	=81	=81	=81	=81	=81	=81	=81	=81	=81
8B	know	4G] 4e]	_	1CMM	.	voice	.	153.823	C:maj13
8G	what	.	.	.	.	.	.	.	.
8r	.	2r	.	.	.	.	.	.	.
8G	time	.	.	.	.	.	.	.	.
12E	it	.	.	.	.	.	.	.	.
8Gq	_	.	.	.	.	.	.	.	.
[6A	is	.	.	.	.	.	.	.	.
8A]	_	4r	.	.	.	.	.	.	.
8r	.	.	.	.	.	.	.	.	.
=82	=82	=82	=82	=82	=82	=82	=82	=82	=82
.	.	8Aq 8eq	_	.	.	.	.	.	.
4r	.	[2.B [2.f#	care	1GMM	.	voice	.	155.865	G:maj7
12r	.	.	.	.	.	.	.	.	.
12r	.	.	.	.	.	.	.	.	.
12D	Does	.	.	.	.	.	.	.	.
12B	a-	.	.	.	.	.	.	.	.
12B	-ny-	.	.	.	.	.	.	.	.
12B	-bo-	.	.	.	.	.	.	.	.
12B	-dy	6B] 6f#]	_	.	.	.	.	.	.
[12d	real	.	.	.	.	.	.	.	.
24d]	_	[12c [12g	_	.	.	.	.	.	.
[24c	ly	.	.	.	.	.	.	.	.
=83	=83	=83	=83	=83	=83	=83	=83	=83	=83
8c]	_	4c] 4g]	_	1CMM	.	voice	.	157.907	C:maj13
8Aq	_	.	.	.	.	.	.	.	.
[8B	care	.	.	.	.	.	.	.	.
4B]	_	4r	.	.	.	.	.	.	.
2r	.	8c 8g	a-	.	.	.	.	.	.
.	.	8d 8a	-bout	.	.	.	.	.	.
.	.	8r	.	.	.	.	.	.	.
.	.	8cq 8aq	_	.	.	.	.	.	.
.	.	[8d [8b	time	.	.	.	.	.	.
=84	=84	=84	=84	=84	=84	=84	=84	=84	=84
4r	.	2.d] 2.b]	_	1GMM	newline	voice	.	159.949	G:maj7
8r	.	.	.	.	.	.	.	.	.
8D	If	.	.	.	.	.	.	.	.
8B	so,	.	.	.	.	.	.	.	.
4c	I	.	.	.	.	.	.	.	.
.	.	4r	.	.	.	.	.	.	.
8d	can't	.	.	.	.	.	.	.	.
=85	=85	=85	=85	=85	=85	=85	=85	=85	=85
8B	i-	2r	.	1CMM	.	voice	.	161.966	C:maj13
8B	-ma-	.	.	.	.	.	.	.	.
8G	-gine	.	.	.	.	.	.	.	.
[8G	why	.	.	.	.	.	A	.	.
4G]	_	4r	.	.	.	.	.	.	.
4r	.	8d 8g	Oh,	.	.	.	.	.	.
.	.	8Bq 8dq	_	.	.	.	.	.	.
.	.	[8c [8e	no,	.	.	.	.	.	.
=86	=86	=86	=86	=86	=86	=86	=86	=86	=86
4r	.	8c] 8e]	_	1GMM	.	voice	.	163.984	G:maj7
.	.	8B 8d	_	.	.	.	.	.	.
8r	.	8G 8B	_	.	.	.	.	.	.
8D	We've	[8B [8d	no	.	.	.	.	.	.
8B	all	8B] 8d]	_	.	.	.	.	.	.
8c	got	8c 8e	_	.	.	.	.	.	.
8r	.	4r	.	.	.	.	.	.	.
8d	time	.	.	.	.	.	.	.	.
=87	=87	=87	=87	=87	=87	=87	=87	=87	=87
16c	e-	1r	.	1CMM	.	voice	.	166.002	C:maj13
8B	-nough	.	.	.	.	.	.	.	.
16G	to	.	.	.	.	.	.	.	.
8r	.	.	.	.	.	.	.	.	.
[8A	cry	.	.	.	.	.	A	.	.
4A]	_	.	.	.	.	.	.	.	.
4r	.	.	.	.	.	.	.	.	.
=88	=88	=88	=88	=88	=88	=88	=88	=88	=88
*>Letter>D	*>Letter>D	*>Letter>D	*>Letter>D	*>Letter>D	*>Letter>D	*>Letter>D	*>Letter>D	*>Letter>D	*>Letter>D
*>Label>Bridge	*>Label>Bridge	*>Label>Bridge	*>Label>Bridge	*>Label>Bridge	*>Label>Bridge	*>Label>Bridge	*>Label>Bridge	*>Label>Bridge	*>Label>Bridge
1r	.	1r	.	2DM	newline	brass	.	168.02	D:maj
.	.	.	.	2Emm	.	brass	.	169.028	E:min7
=89	=89	=89	=89	=89	=89	=89	=89	=89	=89
2r	.	1r	.	2FM	.	brass	.	170.036	F:maj6
10f	Ev-	.	.	2Emm	.	brass	.	171.045	E:min7
10e	-'ry-	.	.	.	.	.	.	.	.
10d	-bo-	.	.	.	.	.	.	.	.
10B	-dy's	.	.	.	.	.	.	.	.
[10d	worr	.	.	.	.	.	.	.	.
=90	=90	=90	=90	=90	=90	=90	=90	=90	=90
*>Letter>C2	*>Letter>C2	*>Letter>C2	*>Letter>C2	*>Letter>C2	*>Letter>C2	*>Letter>C2	*>Letter>C2	*>Letter>C2	*>Letter>C2
*>Label>Chorus	*>Label>Chorus	*>Label>Chorus	*>Label>Chorus	*>Label>Chorus	*>Label>Chorus	*>Label>Chorus	*>Label>Chorus	*>Label>Chorus	*>Label>Chorus
.	.	8Eq 8cq	_	.	.	.	.	.	.
8d]	_	[2.F# [2.d	I	1GMM	newline	voice	.	172.053	G:maj7
8dq	_	.	.	.	.	.	.	.	.
8e	'yin	.	.	.	.	.	.	.	.
4r	.	.	.	.	.	.	.	.	.
2r	.	.	.	.	.	.	.	.	.
.	.	6F#] 6d]	_	.	.	.	.	.	.
.	.	[12G [12e	don't	.	.	.	.	.	.
=91	=91	=91	=91	=91	=91	=91	=91	=91	=91
1r	.	4G] 4e]	_	1CMM	.	voice	.	174.052	C:maj13
.	.	2r	.	.	.	.	.	.	.
.	.	4r	.	.	.	.	.	.	.
=92	=92	=92	=92	=92	=92	=92	=92	=92	=92
.	.	8Aq 8eq	_	.	.	.	.	.	.
2r	.	[2.B [2.f#	care	1GMM	.	voice	.	176.05	G:maj7
8B	I	.	.	.	.	.	.	.	.
8d	don't	.	.	.	.	.	.	.	.
8r	.	6B] 6f#]	_	.	.	.	.	.	.
8e	care	.	.	.	.	.	.	.	.
.	.	[12c [12g	_	.	.	.	.	.	.
=93	=93	=93	=93	=93	=93	=93	=93	=93	=93
32d	_	4c] 4g]	_	1CMM	.	voice	.	178.049	C:maj13
[16.e	_	.	.	.	.	.	.	.	.
16.e]	_	.	.	.	.	.	.	.	.
32d	_	.	.	.	.	.	.	.	.
8B	_	4r	.	.	.	.	.	.	.
8r	.	.	.	.	.	.	.	.	.
2r	.	8c 8g	a-	.	.	.	.	.	.
.	.	8d 8a	-bout	.	.	.	.	.	.
.	.	8r	.	.	.	.	.	.	.
.	.	8cq 8aq	_	.	.	.	.	.	.
.	.	[8d [8b	time	.	.	.	.	.	.
=94	=94	=94	=94	=94	=94	=94	=94	=94	=94
2r	.	2.d] 2.b]	_	1GMM	newline	voice	.	180.048	G:maj7
8B	A-	.	.	.	.	.	.	.	.
8d	-bout	.	.	.	.	.	.	.	.
8r	.	4r	.	.	.	.	.	.	.
8dq	_	.	.	.	.	.	.	.	.
[8e	time	.	.	.	.	.	.	.	.
=95	=95	=95	=95	=95	=95	=95	=95	=95	=95
4e]	_	2r	.	1CMM	.	voice	.	182.095	C:maj13
4r	.	.	.	.	.	.	.	.	.
2r	.	4r	.	.	.	.	.	.	.
.	.	8d 8g	Oh,	.	.	.	.	.	.
.	.	8Bq 8dq	_	.	.	.	.	.	.
.	.	[8c [8e	no,	.	.	.	.	.	.
=96	=96	=96	=96	=96	=96	=96	=96	=96	=96
2r	.	8c] 8e]	_	1GMM	.	voice	.	184.143	G:maj7
.	.	8B 8d	_	.	.	.	.	.	.
.	.	8G 8B	_	.	.	.	.	.	.
.	.	[8B [8d	no	.	.	.	.	.	.
8B	I	8B] 8d]	_	.	.	.	.	.	.
8d	don't	8c 8e	_	.	.	.	.	.	.
8r	.	4r	.	.	.	.	.	.	.
8e	care	.	.	.	.	.	.	.	.
=97	=97	=97	=97	=97	=97	=97	=97	=97	=97
32d	_	1r	.	1CMM	.	voice	.	186.19	C:maj13
[16.e	_	.	.	.	.	.	.	.	.
16.e]	_	.	.	.	.	.	.	.	.
32d	_	.	.	.	.	.	.	.	.
8B	_	.	.	.	.	.	.	.	.
8r	.	.	.	.	.	.	.	.	.
2r	.	.	.	.	.	.	.	.	.
=98	=98	=98	=98	=98	=98	=98	=98	=98	=98
*>Letter>F	*>Letter>F	*>Letter>F	*>Letter>F	*>Letter>F	*>Letter>F	*>Letter>F	*>Letter>F	*>Letter>F	*>Letter>F
*>Label>Outro	*>Label>Outro	*>Label>Outro	*>Label>Outro	*>Label>Outro	*>Label>Outro	*>Label>Outro	*>Label>Outro	*>Label>Outro	*>Label>Outro
1r	.	1r	.	2FM	newline	brass	.	188.237	F:maj
.	.	.	.	2B-MM	.	brass	.	189.264	B-:maj7
=99	=99	=99	=99	=99	=99	=99	=99	=99	=99
1r	.	1r	.	2E-MM	.	brass	.	190.29	E-:maj7
.	.	.	.	2FM	.	brass	.	191.317	F:maj
=100	=100	=100	=100	=100	=100	=100	=100	=100	=100
1r	.	1r	.	1GMM	.	brass	.	192.343	G:maj7
r;	.	1r	.	1r;	.	r	.	197.989	N.C.
r;	.	1r	.	1r;	.	r	.	200.021	N.C.
*-	*-	*-	*-	*-	*-	*-	*-	*-	*-
!!!BillboardChartDate: 1970/11/07
!!!BillboardPeak: 7
!!!BillboardWeeksOnChart: 13
!!!COC: Chicago
!!!ENC: Nathaniel Condit-Schultz
!!!EST: Awating manual error checking and editing.
!!!OTL: Does Anybody Really Know What Time It Is?
!!!RDF**chordsym: original McGill chord annotation + (implied pitch class set, with bass pitch in first position)
!!!RDF**harmony: **recip + pitch class of root + harmonic quality
!!!RDF**leadinstrument: original McGill primary instrumentation annotation
!!!RDF**phrase: newline = linebreak in original McGill transcription
!!!RDF**timestamp: McGill audio timestamp in seconds
!!!RDT: 2017/01/12/
!!!SampleActualRank: 72
!!!SampleID#: 0700
!!!SampleTargetRank: 74
